!!!OTL: Eischterliedji
!!!ARE: Europa, Mitteleuropa,Schweiz, Kt. Wallis, Brigersberg
!!!ARD1: Europa%Mitteleuropa%Schweiz@Kt. Wallis#Brigersberg#?
!!!ARL1: ? / ?
!!!ARD2: Europa%Mitteleuropa%Schweiz@Kt. Wallis#
!!!ARL2: 46.58/6.50#
!!!SCT: D0092
!!!YEM: Copyright 1995, estate of Helmut Schaffrath.
**kern
*ICvox
*Ivox
*M4/4
*k[f#]
*G:
{8.g
16a
=1
4b
4b
8.b
16a
8.b
16cc
=2
4dd
4dd
4r}
{8.ee
16dd
=3
4dd
4cc
8ee
8dd
4cc
=4
2b
4r}
{8.g
16a
=5
4b
4b
8.b
16a
8.b
16cc
=6
4dd
4dd
4r}
{8.ee
16dd
=7
4dd
4cc
8ee
8dd
4cc
=8
2b
4r}
==
!!!AGN: Jodel - Lied
!!!ONB: ESAC (Essen Associative Code) Database: DVA
!!!AMT: simple quadruple
!!!AIN: vox
!!!EED: Helmut Schaffrath
!!!EEV: 1.0
*-
